X: 1
T: Johnnie's
M: 6/8
L: 1/8
R: jig
K: Gmaj
|:GGG BGB|ded BGB|gfg dBG|BAB GED|DGG EGG|DGG dBd|gfg edB|1 AGE G2 D:|2AGE G2 d||
|Bdd dBd|ege dBd|gfg dBG|BAB GED|Bdd dBd|ege dBd|gfg edB|AGE G2 d|Bdd dBd|ege dBd|gfg dBG|BAB GED|DGG EGG|DGG dBd|gfg edB|AGE G3||
